**kern	**kern
*part1	*part1
*staff2	*staff1
*I"Piano	*
*clefF4	*clefG2
*k[f#c#g#d#a#]	*k[f#c#g#d#a#]
=1	=1
4FF#	8eL 8f# 8cc#
.	8A#
4C#	8e 8f# 8b
.	8B
4F#	8e 8f# 8a#
.	8c#J
=	=
4BBB	8dd#L 8bb
.	8b
4FF#	8b 8ff#
.	8f#
4BB	8f# 8dd#
.	8d#J
=	=
4BB	8bL 8ff#
.	8f#
4F#	8f# 8dd#
.	8d#J
4B	8d#L 8b
.	8BJ
=	=
4FF#	8eL 8f# 8cc#
.	8A#
4C#	8e 8f# 8b
.	8B
4F#	8e 8f# 8a#
.	8c#J
=	=
4FF#	8eL 8f# 8cc#
.	8A#
4C#	8e 8f# 8b
.	8B
4F#	8e 8f# 8a#
.	8c#J
=	=
*^	*
4An	2.BB	8BL 8d# 8f# 8b
.	.	8B
4A	.	8d# 8f#
.	.	8B
4G#	.	8c##X 8e#X
.	.	8BJ
=	=	=
4An	2.BB	8d#L 8f#
.	.	8B
4A	.	8d# 8f#
.	.	8B
4G#	.	8c##X 8e#X
.	.	8BJ
*v	*v	*
=	=
*-	*-
!!!system-decoration: {(s1,s2)}
